dist/svgs/crypto-icons/icons/ptoy.svg

<?xml version="1.0" encoding="UTF-8" standalone="yes"?>
<svg xmlns="http://www.w3.org/2000/svg" xmlns:xlink="http://www.w3.org/1999/xlink" width="510.66666666666663px" height="488px" viewBox="0 0 383 366" version="1.1">
  <g id="surface1">
    <path style=" stroke:none;fill-rule:evenodd;fill:rgb(0%,0%,0%);fill-opacity:1;" d="M 321.039062 134.816406 L 262.53125 134.816406 C 254.425781 134.816406 246.953125 131.585938 240.117188 125.132812 C 233.277344 118.675781 229.855469 111.269531 229.855469 102.914062 L 229.855469 45.1875 C 229.855469 37.082031 227.324219 30.4375 222.257812 25.246094 C 217.191406 20.058594 210.609375 17.460938 202.503906 17.460938 L 148.933594 17.460938 C 140.828125 17.460938 133.546875 20.058594 127.085938 25.246094 C 120.628906 30.4375 117.398438 37.082031 117.398438 45.1875 L 117.398438 103.671875 C 117.398438 111.773438 114.675781 119.054688 109.230469 125.511719 C 103.785156 131.96875 97.007812 135.195312 88.902344 135.195312 L 31.152344 135.195312 C 22.796875 135.195312 15.515625 137.917969 9.308594 143.359375 C 3.101562 148.804688 0 155.578125 0 163.679688 L 0 217.230469 C 0 225.585938 3.101562 232.738281 9.308594 238.6875 C 15.515625 244.636719 22.796875 247.613281 31.152344 247.613281 L 89.285156 247.613281 C 97.640625 247.613281 104.480469 250.523438 109.800781 256.347656 C 115.117188 262.171875 117.777344 269.261719 117.777344 277.617188 L 117.777344 335.722656 C 117.777344 344.078125 120.945312 351.167969 127.277344 356.992188 C 133.609375 362.816406 141.082031 365.726562 149.691406 365.726562 L 202.882812 365.726562 C 211.242188 365.726562 217.890625 362.816406 222.828125 356.992188 C 227.769531 351.167969 230.238281 344.078125 230.238281 335.722656 L 230.238281 277.617188 C 230.238281 269.261719 233.59375 262.171875 240.304688 256.347656 C 247.015625 250.523438 254.679688 247.613281 263.292969 247.613281 L 321.421875 247.613281 C 329.777344 247.613281 336.425781 244.636719 341.367188 238.6875 C 346.304688 232.738281 348.777344 225.585938 348.777344 217.230469 L 348.777344 163.679688 C 348.269531 155.324219 345.546875 148.425781 340.605469 142.980469 C 335.667969 137.539062 329.144531 134.816406 321.039062 134.816406 Z M 268.230469 91.519531 L 286.46875 95.699219 C 298.625 98.734375 311.921875 98.800781 326.359375 95.886719 C 340.796875 92.976562 353.96875 85.0625 365.871094 72.152344 C 377.777344 58.984375 383.476562 36.449219 382.96875 4.546875 L 364.351562 1.128906 C 351.6875 -0.894531 338.011719 -0.199219 323.320312 3.21875 C 308.628906 6.636719 295.457031 14.804688 283.808594 27.714844 C 271.902344 40.375 266.710938 61.644531 268.230469 91.519531 Z M 268.230469 91.519531 "/>
  </g>
</svg>

<svg xmlns="http://www.w3.org/2000/svg" viewBox="0 0 383 366"><path fill-rule="evenodd" d="M321.04 134.816h-58.51c-8.105 0-15.578-3.23-22.414-9.683-6.84-6.457-10.262-13.863-10.262-22.219V45.187c0-8.105-2.53-14.75-7.597-19.94-5.067-5.188-11.649-7.786-19.754-7.786h-53.57c-8.106 0-15.387 2.598-21.848 7.785-6.457 5.192-9.688 11.836-9.688 19.942v58.484c0 8.101-2.722 15.383-8.168 21.84-5.445 6.457-12.222 9.683-20.328 9.683h-57.75c-8.355 0-15.636 2.723-21.843 8.164C3.102 148.805 0 155.58 0 163.68v53.551c0 8.356 3.102 15.508 9.309 21.458 6.207 5.949 13.488 8.925 21.843 8.925h58.133c8.356 0 15.195 2.91 20.516 8.735 5.316 5.824 7.976 12.914 7.976 21.27v58.105c0 8.355 3.168 15.445 9.5 21.27 6.332 5.823 13.805 8.734 22.414 8.734h53.192c8.36 0 15.008-2.91 19.945-8.735 4.942-5.824 7.41-12.914 7.41-21.27v-58.105c0-8.355 3.356-15.445 10.067-21.27 6.71-5.824 14.375-8.734 22.988-8.734h58.129c8.355 0 15.004-2.976 19.945-8.925 4.938-5.95 7.41-13.102 7.41-21.458v-53.55c-.507-8.356-3.23-15.254-8.172-20.7-4.937-5.44-11.46-8.164-19.566-8.164zM268.23 91.52l18.239 4.18c12.156 3.034 25.453 3.1 39.89.187 14.438-2.91 27.61-10.825 39.512-23.735 11.906-13.168 17.606-35.703 17.098-67.605l-18.617-3.418C351.688-.895 338.012-.2 323.32 3.219c-14.691 3.418-27.863 11.586-39.511 24.496-11.907 12.66-17.098 33.93-15.579 63.805zm0 0"/></svg>
